X: 19454
T: Jackson's Coagy
R: jig
M: 6/8
K: Adorian
G|EAA ABc|BAG c2A|BGE EDE|GED D2G|
EAA ABc|BAG ABd|ede gdB|ABA A2:|:d|
eaa aga|bab c'2a|bge ede|ged d2g|
eaa aga|bag a2g|ede gdB|ABA A2:|

